SVG_Azure_Grouped/Deployment/Azure Pipelines.svg

<?xml version="1.0" encoding="UTF-8" standalone="no"?>
<!-- Generated by Microsoft Visio, SVG Export Azure Pipelines.svg Page-1 -->

<svg
   xmlns:dc="http://purl.org/dc/elements/1.1/"
   xmlns:cc="http://creativecommons.org/ns#"
   xmlns:rdf="http://www.w3.org/1999/02/22-rdf-syntax-ns#"
   xmlns:svg="http://www.w3.org/2000/svg"
   xmlns="http://www.w3.org/2000/svg"
   xmlns:sodipodi="http://sodipodi.sourceforge.net/DTD/sodipodi-0.dtd"
   xmlns:inkscape="http://www.inkscape.org/namespaces/inkscape"
   width="0.7873733in"
   height="0.7874586in"
   viewBox="0 0 56.690876 56.69716"
   xml:space="preserve"
   class="st8"
   version="1.1"
   id="svg46"
   sodipodi:docname="Azure Pipelines.svg"
   style="font-size:12px;overflow:visible;color-interpolation-filters:sRGB;fill:none;fill-rule:evenodd;stroke-linecap:square;stroke-miterlimit:3"
   inkscape:version="0.92.5 (2060ec1f9f, 2020-04-08)"><metadata
   id="metadata52"><rdf:RDF><cc:Work
       rdf:about=""><dc:format>image/svg+xml</dc:format><dc:type
         rdf:resource="http://purl.org/dc/dcmitype/StillImage" /></cc:Work></rdf:RDF></metadata><defs
   id="defs50" /><sodipodi:namedview
   pagecolor="#ffffff"
   bordercolor="#666666"
   borderopacity="1"
   objecttolerance="10"
   gridtolerance="10"
   guidetolerance="10"
   inkscape:pageopacity="0"
   inkscape:pageshadow="2"
   inkscape:window-width="640"
   inkscape:window-height="480"
   id="namedview48"
   showgrid="false"
   inkscape:zoom="1.8365233"
   inkscape:cx="37.795184"
   inkscape:cy="18.900351"
   inkscape:window-x="0"
   inkscape:window-y="0"
   inkscape:window-maximized="0"
   inkscape:current-layer="svg46" />
	<style
   type="text/css"
   id="style2">
	<![CDATA[
		.st1 {fill:#235dc1;stroke:none;stroke-linecap:butt;stroke-width:0.75}
		.st2 {fill:#3b6ec6;stroke:none;stroke-linecap:butt;stroke-width:0.75}
		.st3 {fill:#5d8de4;stroke:none;stroke-linecap:butt;stroke-width:0.75}
		.st4 {fill:#9fbbf0;stroke:none;stroke-linecap:butt;stroke-width:0.75}
		.st5 {fill:#adc5f2;stroke:none;stroke-linecap:butt;stroke-width:0.75}
		.st6 {fill:#6c9aee;stroke:none;stroke-linecap:butt;stroke-width:0.75}
		.st7 {fill:#88acef;stroke:none;stroke-linecap:butt;stroke-width:0.75}
		.st8 {fill:none;fill-rule:evenodd;font-size:12px;overflow:visible;stroke-linecap:square;stroke-miterlimit:3}
	]]>
	</style>

	<g
   id="g44"
   transform="translate(-5.6693772,-5.66714)">
		<title
   id="title4">Page-1</title>
		<g
   id="group17435-1"
   transform="translate(5.66929,-34.0157)">
			<title
   id="title6">Azure Pipelines.17435</title>
			<g
   id="shape17436-2"
   transform="translate(19.2795,-0.059247)">
				<title
   id="title8">path2</title>
				<path
   d="m 0.27,88.69 7.68,7.69 h 12.47 c 1.52,0 2.74,-1.24 2.74,-2.75 V 64.8 L 0.27,87.73 C 0,87.99 0,88.42 0.27,88.69 Z"
   class="st1"
   id="path10"
   inkscape:connector-curvature="0"
   style="fill:#235dc1;stroke:none;stroke-width:0.75;stroke-linecap:butt" />
			</g>
			<g
   id="shape17437-4"
   transform="translate(0,-19.365)">
				<title
   id="title13">path4</title>
				<path
   d="m 0,75.93 v 12.49 l 7.68,7.69 c 0.27,0.27 0.7,0.27 0.95,0 L 31.53,73.17 H 2.74 C 1.24,73.17 0,74.41 0,75.93 Z"
   class="st2"
   id="path15"
   inkscape:connector-curvature="0"
   style="fill:#3b6ec6;stroke:none;stroke-width:0.75;stroke-linecap:butt" />
			</g>
			<g
   id="shape17438-6"
   transform="translate(9.71102,-9.62716)">
				<title
   id="title18">path6</title>
				<path
   d="M 19.11,52.21 0.62,80.54 C 0,81.5 0.13,82.77 0.94,83.58 l 11.84,11.86 c 0.81,0.81 2.09,0.94 3.04,0.31 L 44.1,77.22 c 1.8,-1.18 2.88,-3.19 2.88,-5.34 V 52.13 c 0,-1.55 -1.26,-2.82 -2.81,-2.82 H 24.46 c -2.15,0 -4.16,1.1 -5.35,2.9 z"
   class="st3"
   id="path20"
   inkscape:connector-curvature="0"
   style="fill:#5d8de4;stroke:none;stroke-width:0.75;stroke-linecap:butt" />
			</g>
			<g
   id="shape17439-8">
				<title
   id="title23">path8</title>
				<path
   d="M 4.16,92.42 V 82.41 H 0 v 13.97 h 14.16 v -3.96 z"
   class="st4"
   id="path25"
   inkscape:connector-curvature="0"
   style="fill:#9fbbf0;stroke:none;stroke-width:0.75;stroke-linecap:butt" />
			</g>
			<g
   id="shape17440-10"
   transform="translate(35.4632,-35.7069)">
				<title
   id="title28">path10</title>
				<path
   d="m 7.04,96.38 c 3.89,0 7.04,-3.16 7.04,-7.05 0,-3.9 -3.15,-7.06 -7.04,-7.06 -3.89,0 -7.04,3.16 -7.04,7.06 0,3.89 3.15,7.05 7.04,7.05 z"
   class="st5"
   id="path30"
   inkscape:connector-curvature="0"
   style="fill:#adc5f2;stroke:none;stroke-width:0.75;stroke-linecap:butt" />
			</g>
			<g
   id="shape17441-12"
   transform="translate(14.8407,-14.7498)">
				<title
   id="title33">path12</title>
				<path
   d="M 15.06,77.82 0,92.9 3.47,96.38 18.53,81.3 Z"
   class="st6"
   id="path35"
   inkscape:connector-curvature="0"
   style="fill:#6c9aee;stroke:none;stroke-width:0.75;stroke-linecap:butt" />
			</g>
			<g
   id="shape17442-14"
   transform="translate(11.8415,-11.7494)">
				<title
   id="title38">path14</title>
				<path
   d="m 3.47,96.38 3,-3 L 2.99,89.9 0,92.9 Z"
   class="st7"
   id="path40"
   inkscape:connector-curvature="0"
   style="fill:#88acef;stroke:none;stroke-width:0.75;stroke-linecap:butt" />
			</g>
		</g>
	</g>
</svg>

<?xml version="1.0" encoding="UTF-8" standalone="no"?>
<!DOCTYPE svg PUBLIC "-//W3C//DTD SVG 1.1//EN" "http://www.w3.org/Graphics/SVG/1.1/DTD/svg11.dtd">
<!-- Generated by Microsoft Visio, SVG Export Azure Pipelines.svg Page-1 -->
<svg xmlns="http://www.w3.org/2000/svg" xmlns:xlink="http://www.w3.org/1999/xlink" xmlns:ev="http://www.w3.org/2001/xml-events"
		width="0.944882in" height="1.33858in" viewBox="0 0 68.0315 96.378" xml:space="preserve" color-interpolation-filters="sRGB"
		class="st8">
	<style type="text/css">
	<![CDATA[
		.st1 {fill:#235dc1;stroke:none;stroke-linecap:butt;stroke-width:0.75}
		.st2 {fill:#3b6ec6;stroke:none;stroke-linecap:butt;stroke-width:0.75}
		.st3 {fill:#5d8de4;stroke:none;stroke-linecap:butt;stroke-width:0.75}
		.st4 {fill:#9fbbf0;stroke:none;stroke-linecap:butt;stroke-width:0.75}
		.st5 {fill:#adc5f2;stroke:none;stroke-linecap:butt;stroke-width:0.75}
		.st6 {fill:#6c9aee;stroke:none;stroke-linecap:butt;stroke-width:0.75}
		.st7 {fill:#88acef;stroke:none;stroke-linecap:butt;stroke-width:0.75}
		.st8 {fill:none;fill-rule:evenodd;font-size:12px;overflow:visible;stroke-linecap:square;stroke-miterlimit:3}
	]]>
	</style>

	<g>
		<title>Page-1</title>
		<g id="group17038-1" transform="translate(5.66929,-34.0157)">
			<title>Azure Pipelines.17038</title>
			<g id="shape17039-2" transform="translate(19.2795,-0.059247)">
				<title>path2</title>
				<path d="M0.27 88.69 L7.95 96.38 L20.42 96.38 C21.94 96.38 23.16 95.14 23.16 93.63 L23.16 64.8 L0.27 87.73 C0 87.99
							 0 88.42 0.27 88.69 Z" class="st1"/>
			</g>
			<g id="shape17040-4" transform="translate(-2.8777E-13,-19.365)">
				<title>path4</title>
				<path d="M0 75.93 L0 88.42 L7.68 96.11 C7.95 96.38 8.38 96.38 8.63 96.11 L31.53 73.17 L2.74 73.17 C1.24 73.17 0 74.41
							 0 75.93 Z" class="st2"/>
			</g>
			<g id="shape17041-6" transform="translate(9.71102,-9.62716)">
				<title>path6</title>
				<path d="M19.11 52.21 L0.62 80.54 C0 81.5 0.13 82.77 0.94 83.58 L12.78 95.44 C13.59 96.25 14.87 96.38 15.82 95.75
							 L44.1 77.22 C45.9 76.04 46.98 74.03 46.98 71.88 L46.98 52.13 C46.98 50.58 45.72 49.31 44.17 49.31 L24.46
							 49.31 C22.31 49.31 20.3 50.41 19.11 52.21 Z" class="st3"/>
			</g>
			<g id="shape17042-8">
				<title>path8</title>
				<path d="M4.16 92.42 L4.16 82.41 L0 82.41 L0 96.38 L14.16 96.38 L14.16 92.42 L4.16 92.42 Z" class="st4"/>
			</g>
			<g id="shape17043-10" transform="translate(35.4632,-35.7069)">
				<title>path10</title>
				<path d="M7.04 96.38 C10.93 96.38 14.08 93.22 14.08 89.33 C14.08 85.43 10.93 82.27 7.04 82.27 C3.15 82.27 0 85.43
							 0 89.33 C0 93.22 3.15 96.38 7.04 96.38 Z" class="st5"/>
			</g>
			<g id="shape17044-12" transform="translate(14.8407,-14.7498)">
				<title>path12</title>
				<path d="M15.06 77.82 L0 92.9 L3.47 96.38 L18.53 81.3 L15.06 77.82 Z" class="st6"/>
			</g>
			<g id="shape17045-14" transform="translate(11.8415,-11.7494)">
				<title>path14</title>
				<path d="M3.47 96.38 L6.47 93.38 L2.99 89.9 L0 92.9 L3.47 96.38 Z" class="st7"/>
			</g>
		</g>
	</g>
</svg>
